!!!COM: Schubert, Franz
!!!CNT: Deutscher
!!!TXO: Deutsch
!!!LYR: Johann Wolfgang von Goethe
!!!OTL: "Lied der Mignon"
!!!OPS: Op. 62
!!!ONM: No. 2
!!!ODT: 1826/
!!NB: Vocal melody only encoded.
!!NB: Original key: e minor
**kern	**silbe
*clefG2	*
*k[b-]	*
*M4/4	*
*MM[Langsam]	*
=5	=5
{4f	{Heiss
8f	mich
8g	nicht
4f	re-
4e	-den,
=6	=6
4g	heiss
8a	|
8e	mich
4g	schwei-
4f	-gen,
=7	=7
4a	denn
8a	mein
8a	Ge-
4.cc	-heim-
8b-	-nis
=8	=8
4a	ist
4g	mir
4f}	Pflicht;}
8r	.
{8f	{ich
=9	=9
4.f	mo2ch-
8g	-te
4f	dir
8e	|
8f	mein
=10	=10
8.g	gan-
16g	-zes
8a	Inn-
8e	-re
4g	zei-
8f	-gen,
8a	al-
=11	=11
4.a	-lein
8cc#	das
8dd	Schick-
8ff	|
8ee	-sal
8dd	|
=12	=12
4dd	will
8cc#	es
ddq	|
cc#q	|
16bn	|
16cc#	|
4dd}	nicht.}
4r	.
=13	=13
2r	.
4r	.
8r	.
{8f	{Zur
=14	=14
4.f	rech-
8f	-ten
8.g	Zeit
16f	ver-
8g	-treibt
8a	der
=15	=15
8b-	Son-
8cc	-ne
4.dd	Lauf
8cc	die
8b-	fin-
8g	-stre'
=16	=16
4f}	Nacht,}
8r	.
{8b-	{und
8f	sie
8d	muss
8B-	sich
8g	er-
=17	=17
2f	-hel-
4d}	-len;}
4r	.
=18	=18
2r	.
4r	.
8r	.
{8f	{der
=19	=19
4.f	har-
8f	-te
8.g	Fels
16f	schliesst
8g	sei-
8a	-nen
=20	=20
8b-	Bu-
8cc	-sen
4.dd	auf,
8cc	miss-
8b-	-go2nnt
8g	der
=21	=21
8.f	Er-
16g	-de
8a	nicht
8b-	die
8f	tief
8d	ver-
16B-	-borg'-
16b-	|
16a	-nen
16g	|
=22	=22
2f	Quel-
4d}	-len.}
4r	.
=23	=23
1r	.
=24	=24
1r	.
=25	=25
2r	.
4r	.
8r	.
{8f#	{Ein
=26	=26
4.f#	je-
8g	-der
4f#	sucht
8e	|
8f#	im
=27	=27
8.g	Arm
16g	des
8a	Freun-
8e	-des
4g	Ruh,
8f#}	|}
{8a	{dort
=28	=28
8a	kann
4dd	|
8a#	die
4a#	Brust
8bn	|
8b	in
=29	=29
8.bn	Kla-
16cc	-gen
8f#	sich
8b	er-
4a	-gie-
8g}	-ssen,}
{16ee	{in
16dd	|
=30	=30
ddq	Kla-
8cc	|
8bn	-gen
16a	sich
16b	|
16e	er-
16a	|
4g	-gie-
8f#}	-ssen;}
8r	.
=31	=31
2r	.
8.r	.
{16a	{al-
8a	-lein
8f	ein
=32	=32
4.b-	Schwur
8f	dru2ckt
8.d	mir
16f	die
8d	Lip-
8B-	-pen
=33	=33
2g}	zu,}
8r	.
{8b-	{und
8b-	nur
8ee-	ein
=34	=34
[2dd	Gott
4.dd]	|
8f	ver-
=35	=35
8.f	-mag
16f	sie
8cc	auf-
8b-	-zu-
2a	-schlie-
=36	=36
4f#}	-ssen,}
4r	.
4r	.
8r	.
{8f#	{ein
=37	=37
4.g	Schwur
8g	dru2ckt
8.a	mir
16a	die
8g	Lip-
8a	-pen
=38	=38
2b-}	zu,}
8r	.
{8b-	{und
8ee-	nur
8dd	ein
=39	=39
4.cc#	Gott,
8cc#	ein
4.ee	Gott
8a	ver-
=40	=40
8f	-mag
8dd	sie
8.ff	auf-
16ee	-zu-
4dd	schlie
8cc#	|
ddq	|
cc#q	|
16bn	|
16cc#	|
=41	=41
4dd}	-ssen.}
4r	.
2r	.
==	==
*-	*-